public/icons/nodejs.svg

<svg width="128" height="128" viewBox="0 0 128 128" fill="none" xmlns="http://www.w3.org/2000/svg">
<path d="M114.325 80.749C114.035 80.749 113.747 80.673 113.493 80.525L110.843 78.957C110.447 78.736 110.64 78.657 110.771 78.612C111.299 78.428 111.406 78.385 111.969 78.067C112.028 78.034 112.105 78.046 112.166 78.082L114.201 79.291C114.239 79.3112 114.281 79.3218 114.324 79.3218C114.367 79.3218 114.409 79.3112 114.447 79.291L122.384 74.71C122.421 74.688 122.452 74.6565 122.474 74.6188C122.495 74.5811 122.506 74.5384 122.506 74.495V65.335C122.506 65.291 122.495 65.2478 122.473 65.2094C122.452 65.171 122.42 65.1389 122.383 65.116L114.449 60.539C114.411 60.5184 114.369 60.5075 114.326 60.5075C114.284 60.5075 114.241 60.5184 114.204 60.539L106.271 65.117C106.233 65.1398 106.202 65.1717 106.18 65.2099C106.158 65.248 106.147 65.2911 106.146 65.335V74.495C106.146 74.583 106.195 74.666 106.271 74.707L108.445 75.964C109.625 76.553 110.348 75.859 110.348 75.161V66.116C110.348 65.989 110.451 65.888 110.578 65.888H111.585C111.71 65.888 111.814 65.989 111.814 66.116V75.161C111.814 76.735 110.957 77.638 109.464 77.638C109.005 77.638 108.644 77.638 107.636 77.142L105.555 75.944C105.302 75.7965 105.092 75.5851 104.946 75.331C104.8 75.077 104.723 74.7891 104.723 74.496V65.336C104.723 64.741 105.04 64.186 105.555 63.89L113.492 59.303C113.748 59.1638 114.034 59.0908 114.325 59.0908C114.617 59.0908 114.903 59.1638 115.159 59.303L123.096 63.89C123.61 64.187 123.929 64.742 123.929 65.336V74.496C123.928 74.7891 123.851 75.0769 123.705 75.3309C123.559 75.5849 123.349 75.7963 123.096 75.944L115.159 80.526C114.906 80.673 114.618 80.75 114.325 80.749ZM116.778 74.438C113.303 74.438 112.576 72.843 112.576 71.506C112.576 71.4452 112.601 71.387 112.644 71.344C112.687 71.3011 112.745 71.277 112.806 71.277H113.832C113.887 71.2768 113.94 71.2963 113.982 71.3319C114.024 71.3674 114.051 71.4168 114.06 71.471C114.214 72.516 114.677 73.043 116.778 73.043C118.449 73.043 119.161 72.665 119.161 71.777C119.161 71.265 118.959 70.886 116.361 70.631C114.189 70.416 112.846 69.937 112.846 68.198C112.846 66.597 114.196 65.641 116.458 65.641C119.001 65.641 120.259 66.524 120.418 68.418C120.42 68.4499 120.416 68.4819 120.406 68.5122C120.396 68.5425 120.379 68.5703 120.358 68.594C120.336 68.6168 120.31 68.635 120.281 68.6475C120.252 68.66 120.221 68.6667 120.19 68.667H119.159C119.107 68.6671 119.056 68.6494 119.016 68.6168C118.975 68.5843 118.947 68.5388 118.936 68.488C118.688 67.388 118.088 67.037 116.457 67.037C114.632 67.037 114.42 67.674 114.42 68.149C114.42 68.726 114.67 68.894 117.135 69.22C119.574 69.543 120.733 69.999 120.733 71.714C120.734 73.447 119.292 74.438 116.778 74.438" fill="#83CD29"/>
<path d="M97.982 68.43C98.295 68.247 98.488 67.913 98.488 67.55V65.196C98.488 64.834 98.296 64.5 97.982 64.317L89.618 59.461C89.4634 59.371 89.2877 59.3235 89.1088 59.3231C88.9299 59.3228 88.7541 59.3696 88.599 59.459L80.183 64.318C80.0287 64.4073 79.9006 64.5356 79.8114 64.69C79.7222 64.8445 79.6752 65.0196 79.675 65.198V74.914C79.675 75.279 79.871 75.6169 80.189 75.7979L88.552 80.563C88.86 80.74 89.238 80.741 89.549 80.569L94.607 77.757C94.6858 77.7133 94.7515 77.6494 94.7974 77.572C94.8434 77.4945 94.8679 77.4063 94.8685 77.3162C94.8692 77.2262 94.8458 77.1376 94.8009 77.0595C94.756 76.9814 94.6912 76.9167 94.613 76.872L86.145 72.012C86.0674 71.9677 86.0028 71.9037 85.9578 71.8264C85.9129 71.7491 85.8891 71.6614 85.889 71.572V68.526C85.889 68.344 85.986 68.177 86.143 68.087L88.78 66.567C88.8571 66.5223 88.9445 66.4987 89.0335 66.4987C89.1226 66.4987 89.21 66.5223 89.287 66.567L91.924 68.087C92.0014 68.1313 92.0657 68.1952 92.1105 68.2722C92.1552 68.3493 92.1789 68.4368 92.179 68.526V70.9219C92.1785 71.0115 92.2017 71.0997 92.2464 71.1774C92.291 71.2551 92.3554 71.3196 92.433 71.3643C92.5106 71.409 92.5987 71.4323 92.6883 71.4319C92.7779 71.4315 92.8658 71.4074 92.943 71.362L97.982 68.43" fill="#404137"/>
<path d="M88.984 67.974C89.0138 67.9573 89.0473 67.9486 89.0815 67.9486C89.1156 67.9486 89.1492 67.9573 89.179 67.974L90.794 68.907C90.854 68.942 90.891 69.007 90.891 69.076V70.941C90.891 71.011 90.854 71.075 90.794 71.11L89.179 72.042C89.1494 72.0592 89.1157 72.0683 89.0815 72.0683C89.0472 72.0683 89.0136 72.0592 88.984 72.042L87.37 71.11C87.3401 71.093 87.3154 71.0684 87.2981 71.0387C87.2809 71.009 87.2719 70.9753 87.272 70.941V69.076C87.272 69.007 87.309 68.942 87.37 68.907L88.984 67.974Z" fill="#83CD29"/>
<path d="M67.0829 71.854C67.0829 71.944 67.0349 72.028 66.9559 72.074L64.0659 73.74C64.0274 73.7626 63.9835 73.7745 63.9389 73.7745C63.8943 73.7745 63.8504 73.7626 63.8119 73.74L60.9219 72.074C60.8834 72.0516 60.8513 72.0196 60.8291 71.981C60.8068 71.9424 60.795 71.8986 60.7949 71.854V68.516C60.7949 68.426 60.8439 68.341 60.9219 68.295L63.8119 66.627C63.8504 66.6039 63.8945 66.5917 63.9394 66.5917C63.9843 66.5917 64.0284 66.6039 64.0669 66.627L66.9579 68.295C66.9962 68.3178 67.028 68.3502 67.05 68.3889C67.0721 68.4276 67.0838 68.4714 67.0839 68.516V71.854H67.0829ZM67.8639 47.138C67.7864 47.0957 67.6993 47.0741 67.611 47.0755C67.5227 47.0769 67.4362 47.1011 67.3601 47.1458C67.284 47.1905 67.2207 47.2542 67.1765 47.3307C67.1323 47.4071 67.1087 47.4937 67.1079 47.582V60.497C67.1077 60.5593 67.0912 60.6204 67.0602 60.6744C67.0291 60.7284 66.9846 60.7734 66.9309 60.805C66.8767 60.836 66.8153 60.8522 66.7529 60.8522C66.6905 60.8522 66.6291 60.836 66.5749 60.805L64.4669 59.59C64.3125 59.5011 64.1375 59.4543 63.9594 59.4543C63.7813 59.4543 63.6063 59.5011 63.4519 59.59L55.0339 64.448C54.8792 64.5373 54.7508 64.6657 54.6614 64.8204C54.5721 64.975 54.525 65.1504 54.5249 65.329V75.048C54.5249 75.411 54.7189 75.746 55.0329 75.929L63.4509 80.79C63.7649 80.972 64.1529 80.972 64.4679 80.79L72.8879 75.929C73.0422 75.8394 73.1704 75.7109 73.2595 75.5563C73.3487 75.4017 73.3957 75.2265 73.3959 75.048V50.821C73.3959 50.453 73.1959 50.113 72.8749 49.933L67.8639 47.138Z" fill="#404137"/>
<path d="M38.2379 59.4071C38.3923 59.3177 38.5676 59.2706 38.7459 59.2706C38.9243 59.2706 39.0996 59.3177 39.2539 59.4071L47.6719 64.2641C47.9859 64.4461 48.1799 64.7821 48.1799 65.1451V74.8671C48.1799 75.2301 47.9859 75.5661 47.6719 75.7481L39.2549 80.6091C39.1002 80.698 38.9249 80.7448 38.7464 80.7448C38.568 80.7448 38.3926 80.698 38.2379 80.6091L29.8229 75.7481C29.6686 75.6585 29.5405 75.53 29.4513 75.3754C29.3622 75.2208 29.3151 75.0455 29.3149 74.8671V65.1441C29.3149 64.7821 29.5089 64.4461 29.8229 64.2641L38.2379 59.4071" fill="#83CD29"/>
<path d="M22.9299 65.064C22.9299 64.698 22.7379 64.362 22.4219 64.181L14.0069 59.338C13.8656 59.256 13.7062 59.2103 13.5429 59.205H13.4559C13.2926 59.2105 13.1333 59.2561 12.9919 59.338L4.57589 64.181C4.42107 64.2706 4.29254 64.3993 4.2032 64.5543C4.11386 64.7093 4.06685 64.8851 4.06689 65.064L4.08489 78.104C4.08489 78.286 4.17989 78.455 4.33889 78.543C4.41503 78.5891 4.50236 78.6135 4.59139 78.6135C4.68043 78.6135 4.76776 78.5891 4.84389 78.543L9.84389 75.679C10.1599 75.491 10.3529 75.16 10.3529 74.797V68.705C10.3529 68.341 10.5449 68.006 10.8599 67.824L12.9899 66.598C13.1438 66.5075 13.3193 66.4602 13.4979 66.461C13.6719 66.461 13.8499 66.505 14.0049 66.598L16.1329 67.824C16.4479 68.006 16.6419 68.341 16.6419 68.705V74.797C16.6419 75.16 16.8369 75.493 17.1509 75.679L22.1509 78.543C22.228 78.587 22.3153 78.6101 22.4041 78.6099C22.4929 78.6097 22.5801 78.5862 22.657 78.5418C22.7339 78.4973 22.7978 78.4335 22.8423 78.3567C22.8869 78.2799 22.9105 78.1928 22.9109 78.104L22.9299 65.064" fill="#404137"/>
</svg>

<svg xmlns="http://www.w3.org/2000/svg" fill="none" viewBox="0 0 128 128"><path fill="#83CD29" d="M114.325 80.749c-.29 0-.578-.076-.832-.224l-2.65-1.568c-.396-.221-.203-.3-.072-.345.528-.184.635-.227 1.198-.545.059-.033.136-.021.197.015l2.035 1.209a.261.261 0 0 0 .246 0l7.937-4.581a.256.256 0 0 0 .09-.091.255.255 0 0 0 .032-.124v-9.16a.256.256 0 0 0-.123-.219l-7.934-4.577a.257.257 0 0 0-.245 0l-7.933 4.578a.258.258 0 0 0-.125.218v9.16c0 .088.049.171.125.212l2.174 1.257c1.18.589 1.903-.105 1.903-.803v-9.045c0-.127.103-.228.23-.228h1.007c.125 0 .229.101.229.228v9.045c0 1.574-.857 2.477-2.35 2.477-.459 0-.82 0-1.828-.496l-2.081-1.198a1.676 1.676 0 0 1-.832-1.448v-9.16c0-.595.317-1.15.832-1.446l7.937-4.587a1.743 1.743 0 0 1 1.667 0l7.937 4.587c.514.297.833.852.833 1.446v9.16a1.687 1.687 0 0 1-.833 1.448l-7.937 4.582a1.65 1.65 0 0 1-.834.223Zm2.453-6.311c-3.475 0-4.202-1.595-4.202-2.932a.23.23 0 0 1 .23-.229h1.026a.23.23 0 0 1 .228.194c.154 1.045.617 1.572 2.718 1.572 1.671 0 2.383-.378 2.383-1.266 0-.512-.202-.891-2.8-1.146-2.172-.215-3.515-.694-3.515-2.433 0-1.601 1.35-2.557 3.612-2.557 2.543 0 3.801.883 3.96 2.777a.236.236 0 0 1-.06.176.238.238 0 0 1-.168.073h-1.031a.226.226 0 0 1-.223-.179c-.248-1.1-.848-1.451-2.479-1.451-1.825 0-2.037.637-2.037 1.112 0 .577.25.745 2.715 1.071 2.439.323 3.598.779 3.598 2.494.001 1.733-1.441 2.724-3.955 2.724"/><path fill="#404137" d="M97.982 68.43c.313-.183.506-.517.506-.88v-2.354c0-.362-.192-.696-.506-.879l-8.364-4.856a1.017 1.017 0 0 0-1.019-.002l-8.416 4.859a1.018 1.018 0 0 0-.508.88v9.716c0 .365.196.703.514.884l8.363 4.765c.308.177.686.178.997.006l5.058-2.812a.508.508 0 0 0 .006-.885l-8.468-4.86a.508.508 0 0 1-.256-.44v-3.046c0-.182.097-.349.254-.439l2.637-1.52a.505.505 0 0 1 .507 0l2.637 1.52a.507.507 0 0 1 .255.439v2.396a.507.507 0 0 0 .764.44l5.039-2.932"/><path fill="#83CD29" d="M88.984 67.974a.2.2 0 0 1 .195 0l1.615.933c.06.035.097.1.097.169v1.865c0 .07-.037.134-.097.169l-1.615.932a.194.194 0 0 1-.195 0l-1.614-.932a.194.194 0 0 1-.098-.169v-1.865c0-.069.037-.134.098-.169l1.614-.933Z"/><path fill="#404137" d="M67.083 71.854c0 .09-.048.174-.127.22l-2.89 1.666a.251.251 0 0 1-.254 0l-2.89-1.666a.255.255 0 0 1-.127-.22v-3.338c0-.09.049-.175.127-.221l2.89-1.668a.248.248 0 0 1 .255 0l2.89 1.668a.258.258 0 0 1 .127.221v3.338h-.001Zm.78-24.716a.511.511 0 0 0-.755.444v12.915a.359.359 0 0 1-.177.308.359.359 0 0 1-.356 0l-2.108-1.215a1.017 1.017 0 0 0-1.015 0l-8.418 4.858a1.018 1.018 0 0 0-.51.881v9.719c0 .363.195.698.509.881l8.418 4.861c.314.182.702.182 1.017 0l8.42-4.861a1.02 1.02 0 0 0 .508-.881V50.821c0-.368-.2-.708-.521-.888l-5.011-2.795Z"/><path fill="#83CD29" d="M38.238 59.407a1.014 1.014 0 0 1 1.016 0l8.418 4.857c.314.182.508.518.508.881v9.722c0 .363-.194.7-.508.881l-8.417 4.861a1.02 1.02 0 0 1-1.017 0l-8.415-4.86a1.02 1.02 0 0 1-.508-.882v-9.723c0-.362.194-.698.508-.88l8.415-4.857"/><path fill="#404137" d="M22.93 65.064c0-.366-.192-.702-.508-.883l-8.415-4.843a.988.988 0 0 0-.464-.133h-.087a.992.992 0 0 0-.464.133l-8.416 4.843a1.02 1.02 0 0 0-.51.883l.019 13.04c0 .182.095.351.254.439a.488.488 0 0 0 .505 0l5-2.864c.316-.188.509-.519.509-.882v-6.092c0-.364.192-.699.507-.881l2.13-1.226a.993.993 0 0 1 .508-.137c.174 0 .352.044.507.137l2.128 1.226c.315.182.509.517.509.881v6.092c0 .363.195.696.509.882l5 2.864a.509.509 0 0 0 .76-.439l.019-13.04"/></svg>
